X:1
T: Cunningham's Fancy
C:
R:Reel
Q: 232
K:Am
M:4/4
L:1/8
BA|GE ((3EDE) cd e^f|ge dB cA A2|GE ((3EDE) cd e^f|ge dB A2 BA|
GE ((3EDE) cd e^f|ge dB cA A2|GE ((3EDE) cd e^f|ge dB A2 cd|
ef ((3g^fg) ea af|ge dB cA A2|e^f ((3gfg) ea ab|c'b ag a2 g^f|
e^f ((3gfg) ea af|ge dB cA A2|GE ((3EDE) cd e^f|ge dB c2 cd|
e^f ((3gfg) ea af|ge dB cA A2|e^f ((3gfg) ea ab|c'b ag a2 ab|
((3c'ba) bg ag ef|ge dB cA A2|GE ((3EDE) cd e^f|ge dB A2||
